assets/img/braze_icons/check-circle-broken.svg

<svg fill="none" height="24" viewBox="0 0 24 24" width="24" xmlns="http://www.w3.org/2000/svg"><path d="m12 1c-6.07513 0-11 4.92487-11 11 0 6.0751 4.92487 11 11 11 6.0751 0 11-4.9249 11-11 0-1.4512-.281-2.8368-.7916-4.10529-.2134-.52998-.32-.79498-.5725-.9662-.1999-.13554-.5168-.20014-.7538-.15366-.2993.05872-.5321.29177-.9978.75788l-7.1768 7.18407c-.1875.1876-.4419.2931-.7073.2932-.2653.0001-.5197-.1053-.7073-.2929l-3.00001-3c-.39052-.3905-.39052-1.0237 0-1.4142.39053-.39053 1.02369-.39053 1.41422 0l2.29249 2.2925 6.978-6.98486c.3757-.37609.5635-.56414.6352-.81012.0575-.19778.0439-.46468-.0336-.65555-.0963-.23739-.2761-.38388-.6357-.67687-1.8935-1.5429-4.3105-2.468-6.9435-2.468z" fill="#801ed7"/></svg>

<svg width="24" height="24" viewBox="0 0 24 24" fill="none" xmlns="http://www.w3.org/2000/svg">
<path d="M12 1C5.92487 1 1 5.92487 1 12C1 18.0751 5.92487 23 12 23C18.0751 23 23 18.0751 23 12C23 10.5488 22.719 9.1632 22.2084 7.89471C21.995 7.36473 21.8884 7.09973 21.6359 6.92851C21.436 6.79297 21.1191 6.72837 20.8821 6.77485C20.5828 6.83357 20.35 7.06662 19.8843 7.53273L12.7075 14.7168C12.52 14.9044 12.2656 15.0099 12.0002 15.01C11.7349 15.0101 11.4805 14.9047 11.2929 14.7171L8.29289 11.7171C7.90237 11.3266 7.90237 10.6934 8.29289 10.3029C8.68342 9.91237 9.31658 9.91237 9.70711 10.3029L11.9996 12.5954L18.9776 5.61054C19.3533 5.23445 19.5411 5.0464 19.6128 4.80042C19.6703 4.60264 19.6567 4.33574 19.5792 4.14487C19.4829 3.90748 19.3031 3.76099 18.9435 3.468C17.05 1.9251 14.633 1 12 1Z" fill="#801ED7"/>
</svg>
